images/social/medium.svg

<svg xmlns="http://www.w3.org/2000/svg" width="300" height="258.44" viewBox="0 0 300 258.44"><defs><style>.a{fill:#fff;}</style></defs><title>medium</title><path class="a" d="M197.84,22.89c.91-1.87,3.3-3.15,5.22-1.89q47,23.4,93.94,47a2.56,2.56,0,0,1,1.25,4.24Q251.71,148,205.16,223.76q-32.67-53.22-65.36-106.44Q168.85,70.13,197.84,22.89Z" transform="translate(0 -20.5)"/><path class="a" d="M0,24.9C.27,23,1.91,21.19,4,21.67A54.56,54.56,0,0,1,11.14,25Q54.46,46.68,97.76,68.37A3.18,3.18,0,0,1,100,71.95Q100,171.49,100,271c-.05,2.43,0,5.37-2.15,7s-4.7.87-6.75-.21L6.6,235.51A11.51,11.51,0,0,1,0,226.38Z" transform="translate(0 -20.5)"/><path class="a" d="M108.83,83.88Q154.43,158,200,232.19c-30.39-15.23-60.83-30.38-91.17-45.7C108.88,152.28,108.79,118.08,108.83,83.88Z" transform="translate(0 -20.5)"/><path class="a" d="M207.95,236.13Q254,161.26,300,86.39V273c-.28,1.94-.69,4.27-2.61,5.29-2.18,1.27-4.71.27-6.75-.75Q249.31,256.82,207.95,236.13Z" transform="translate(0 -20.5)"/></svg>

<?xml version="1.0" encoding="UTF-8" ?>
<!DOCTYPE svg PUBLIC "-//W3C//DTD SVG 1.1//EN" "http://www.w3.org/Graphics/SVG/1.1/DTD/svg11.dtd">
<svg width="300pt" height="300pt" viewBox="0 0 300 300" version="1.1" xmlns="http://www.w3.org/2000/svg">
<g>
<path fill="#fff" opacity="1.00" d=" M 197.84 22.89 C 198.75 21.02 201.14 19.74 203.06 21.00 C 234.40 36.60 265.68 52.34 297.00 68.00 C 298.88 68.53 299.63 70.77 298.25 72.24 C 267.22 122.74 236.20 173.26 205.16 223.76 C 183.38 188.28 161.55 152.82 139.80 117.32 C 159.17 85.86 178.48 54.36 197.84 22.89 Z" />
<path fill="#fff" opacity="1.00" d=" M 0.00 24.90 C 0.27 22.99 1.91 21.19 3.99 21.67 C 6.50 22.48 8.78 23.84 11.14 25.00 C 40.02 39.45 68.88 53.92 97.76 68.37 C 99.29 68.91 100.26 70.30 99.98 71.95 C 100.02 138.31 99.97 204.67 100.01 271.03 C 99.96 273.46 100.00 276.40 97.86 278.04 C 95.85 279.57 93.16 278.91 91.11 277.83 C 62.94 263.73 34.77 249.62 6.60 235.51 C 2.96 233.90 0.47 230.31 0.00 226.38 L 0.00 24.90 Z" />
<path fill="#fff" opacity="1.00" d=" M 108.83 83.88 C 139.23 133.30 169.59 182.75 199.96 232.19 C 169.57 216.96 139.13 201.81 108.79 186.49 C 108.88 152.28 108.79 118.08 108.83 83.88 Z" />
<path fill="#fff" opacity="1.00" d=" M 207.95 236.13 C 238.64 186.22 269.22 136.25 300.00 86.39 L 300.00 273.02 C 299.72 274.96 299.31 277.29 297.39 278.31 C 295.21 279.58 292.68 278.58 290.64 277.56 C 263.09 263.73 235.51 249.95 207.95 236.13 Z" />
</g>
</svg>
